flaticon/real-estate/apartment-4.svg

<svg xmlns="http://www.w3.org/2000/svg" width="32" height="32" viewBox="0 0 24 24">
    <path d="M6.398438 3.199219L4 3.199219C3.761719 3.199219 3.601562 3.359375 3.601562 3.601562L3.601562 6C3.601562 6.238281 3.761719 6.398438 4 6.398438L6.398438 6.398438C6.640625 6.398438 6.800781 6.238281 6.800781 6L6.800781 3.601562C6.800781 3.359375 6.640625 3.199219 6.398438 3.199219zM6 5.601562L4.398438 5.601562 4.398438 4 6 4zM10.398438 3.199219L8 3.199219C7.761719 3.199219 7.601562 3.359375 7.601562 3.601562L7.601562 6C7.601562 6.238281 7.761719 6.398438 8 6.398438L10.398438 6.398438C10.640625 6.398438 10.800781 6.238281 10.800781 6L10.800781 3.601562C10.800781 3.359375 10.640625 3.199219 10.398438 3.199219zM10 5.601562L8.398438 5.601562 8.398438 4 10 4zM6.398438 7.199219L4 7.199219C3.761719 7.199219 3.601562 7.359375 3.601562 7.601562L3.601562 10C3.601562 10.238281 3.761719 10.398438 4 10.398438L6.398438 10.398438C6.640625 10.398438 6.800781 10.238281 6.800781 10L6.800781 7.601562C6.800781 7.359375 6.640625 7.199219 6.398438 7.199219zM6 9.601562L4.398438 9.601562 4.398438 8 6 8zM10.398438 7.199219L8 7.199219C7.761719 7.199219 7.601562 7.359375 7.601562 7.601562L7.601562 10C7.601562 10.238281 7.761719 10.398438 8 10.398438L10.398438 10.398438C10.640625 10.398438 10.800781 10.238281 10.800781 10L10.800781 7.601562C10.800781 7.359375 10.640625 7.199219 10.398438 7.199219zM10 9.601562L8.398438 9.601562 8.398438 8 10 8zM6.398438 11.199219L4 11.199219C3.761719 11.199219 3.601562 11.359375 3.601562 11.601562L3.601562 14C3.601562 14.238281 3.761719 14.398438 4 14.398438L6.398438 14.398438C6.640625 14.398438 6.800781 14.238281 6.800781 14L6.800781 11.601562C6.800781 11.359375 6.640625 11.199219 6.398438 11.199219zM6 13.601562L4.398438 13.601562 4.398438 12 6 12zM10.398438 11.199219L8 11.199219C7.761719 11.199219 7.601562 11.359375 7.601562 11.601562L7.601562 14C7.601562 14.238281 7.761719 14.398438 8 14.398438L10.398438 14.398438C10.640625 14.398438 10.800781 14.238281 10.800781 14L10.800781 11.601562C10.800781 11.359375 10.640625 11.199219 10.398438 11.199219zM10 13.601562L8.398438 13.601562 8.398438 12 10 12zM6.398438 15.199219L4 15.199219C3.761719 15.199219 3.601562 15.359375 3.601562 15.601562L3.601562 18C3.601562 18.238281 3.761719 18.398438 4 18.398438L6.398438 18.398438C6.640625 18.398438 6.800781 18.238281 6.800781 18L6.800781 15.601562C6.800781 15.359375 6.640625 15.199219 6.398438 15.199219zM6 17.601562L4.398438 17.601562 4.398438 16 6 16zM10.398438 15.199219L8 15.199219C7.761719 15.199219 7.601562 15.359375 7.601562 15.601562L7.601562 18C7.601562 18.238281 7.761719 18.398438 8 18.398438L10.398438 18.398438C10.640625 18.398438 10.800781 18.238281 10.800781 18L10.800781 15.601562C10.800781 15.359375 10.640625 15.199219 10.398438 15.199219zM10 17.601562L8.398438 17.601562 8.398438 16 10 16zM6.398438 19.199219L4 19.199219C3.761719 19.199219 3.601562 19.359375 3.601562 19.601562L3.601562 22C3.601562 22.238281 3.761719 22.398438 4 22.398438L6.398438 22.398438C6.640625 22.398438 6.800781 22.238281 6.800781 22L6.800781 19.601562C6.800781 19.359375 6.640625 19.199219 6.398438 19.199219zM6 21.601562L4.398438 21.601562 4.398438 20 6 20zM10.398438 19.199219L8 19.199219C7.761719 19.199219 7.601562 19.359375 7.601562 19.601562L7.601562 22C7.601562 22.238281 7.761719 22.398438 8 22.398438L10.398438 22.398438C10.640625 22.398438 10.800781 22.238281 10.800781 22L10.800781 19.601562C10.800781 19.359375 10.640625 19.199219 10.398438 19.199219zM10 21.601562L8.398438 21.601562 8.398438 20 10 20zM10 21.601562"/>
    <path d="M 23.601562 4.800781 L 22 4.800781 L 22 3.601562 C 22 3.359375 21.839844 3.199219 21.601562 3.199219 L 16 3.199219 C 15.761719 3.199219 15.601562 3.359375 15.601562 3.601562 L 15.601562 4.800781 L 14.398438 4.800781 L 14.398438 2 C 14.398438 1.761719 14.238281 1.601562 14 1.601562 L 10.398438 1.601562 L 10.398438 0.398438 C 10.398438 0.160156 10.238281 0 10 0 L 4.398438 0 C 4.160156 0 4 0.160156 4 0.398438 L 4 1.601562 L 0.398438 1.601562 C 0.160156 1.601562 0 1.761719 0 2 L 0 23.601562 C 0 23.839844 0.160156 24 0.398438 24 L 23.601562 24 C 23.839844 24 24 23.839844 24 23.601562 L 24 5.199219 C 24 4.960938 23.839844 4.800781 23.601562 4.800781 Z M 23.199219 16.800781 L 22 16.800781 L 22 15.199219 L 23.199219 15.199219 Z M 23.199219 12.800781 L 22 12.800781 L 22 11.199219 L 23.199219 11.199219 Z M 23.199219 8.800781 L 22 8.800781 L 22 7.199219 L 23.199219 7.199219 Z M 16.398438 4 L 21.199219 4 L 21.199219 4.800781 L 16.398438 4.800781 Z M 13.601562 5.199219 L 13.601562 5.601562 L 12.398438 5.601562 L 12.398438 4 L 13.601562 4 Z M 13.601562 9.199219 L 13.601562 9.601562 L 12.398438 9.601562 L 12.398438 8 L 13.601562 8 Z M 13.601562 13.199219 L 13.601562 13.601562 L 12.398438 13.601562 L 12.398438 12 L 13.601562 12 Z M 13.601562 17.199219 L 13.601562 17.601562 L 12.398438 17.601562 L 12.398438 16 L 13.601562 16 Z M 13.601562 21.199219 L 13.601562 21.601562 L 12.398438 21.601562 L 12.398438 20 L 13.601562 20 Z M 14.398438 19.601562 L 14.398438 19.199219 L 15.601562 19.199219 L 15.601562 20.800781 L 14.398438 20.800781 Z M 14.398438 15.601562 L 14.398438 15.199219 L 15.601562 15.199219 L 15.601562 16.800781 L 14.398438 16.800781 Z M 14.398438 11.601562 L 14.398438 11.199219 L 15.601562 11.199219 L 15.601562 12.800781 L 14.398438 12.800781 Z M 14.398438 7.601562 L 14.398438 7.199219 L 15.601562 7.199219 L 15.601562 8.800781 L 14.398438 8.800781 Z M 4.800781 0.800781 L 9.601562 0.800781 L 9.601562 1.601562 L 4.800781 1.601562 Z M 0.800781 4 L 2 4 L 2 5.601562 L 0.800781 5.601562 Z M 0.800781 8 L 2 8 L 2 9.601562 L 0.800781 9.601562 Z M 0.800781 12 L 2 12 L 2 13.601562 L 0.800781 13.601562 Z M 0.800781 16 L 2 16 L 2 17.601562 L 0.800781 17.601562 Z M 0.800781 20 L 2 20 L 2 21.601562 L 0.800781 21.601562 Z M 0.800781 22.398438 L 2.398438 22.398438 C 2.640625 22.398438 2.800781 22.238281 2.800781 22 L 2.800781 19.601562 C 2.800781 19.359375 2.640625 19.199219 2.398438 19.199219 L 0.800781 19.199219 L 0.800781 18.398438 L 2.398438 18.398438 C 2.640625 18.398438 2.800781 18.238281 2.800781 18 L 2.800781 15.601562 C 2.800781 15.359375 2.640625 15.199219 2.398438 15.199219 L 0.800781 15.199219 L 0.800781 14.398438 L 2.398438 14.398438 C 2.640625 14.398438 2.800781 14.238281 2.800781 14 L 2.800781 11.601562 C 2.800781 11.359375 2.640625 11.199219 2.398438 11.199219 L 0.800781 11.199219 L 0.800781 10.398438 L 2.398438 10.398438 C 2.640625 10.398438 2.800781 10.238281 2.800781 10 L 2.800781 7.601562 C 2.800781 7.359375 2.640625 7.199219 2.398438 7.199219 L 0.800781 7.199219 L 0.800781 6.398438 L 2.398438 6.398438 C 2.640625 6.398438 2.800781 6.238281 2.800781 6 L 2.800781 3.601562 C 2.800781 3.359375 2.640625 3.199219 2.398438 3.199219 L 0.800781 3.199219 L 0.800781 2.398438 L 13.601562 2.398438 L 13.601562 3.199219 L 12 3.199219 C 11.761719 3.199219 11.601562 3.359375 11.601562 3.601562 L 11.601562 6 C 11.601562 6.238281 11.761719 6.398438 12 6.398438 L 13.601562 6.398438 L 13.601562 7.199219 L 12 7.199219 C 11.761719 7.199219 11.601562 7.359375 11.601562 7.601562 L 11.601562 10 C 11.601562 10.238281 11.761719 10.398438 12 10.398438 L 13.601562 10.398438 L 13.601562 11.199219 L 12 11.199219 C 11.761719 11.199219 11.601562 11.359375 11.601562 11.601562 L 11.601562 14 C 11.601562 14.238281 11.761719 14.398438 12 14.398438 L 13.601562 14.398438 L 13.601562 15.199219 L 12 15.199219 C 11.761719 15.199219 11.601562 15.359375 11.601562 15.601562 L 11.601562 18 C 11.601562 18.238281 11.761719 18.398438 12 18.398438 L 13.601562 18.398438 L 13.601562 19.199219 L 12 19.199219 C 11.761719 19.199219 11.601562 19.359375 11.601562 19.601562 L 11.601562 22 C 11.601562 22.238281 11.761719 22.398438 12 22.398438 L 13.601562 22.398438 L 13.601562 23.199219 L 0.800781 23.199219 Z M 14.398438 23.199219 L 14.398438 21.601562 L 16 21.601562 C 16.238281 21.601562 16.398438 21.441406 16.398438 21.199219 L 16.398438 18.800781 C 16.398438 18.558594 16.238281 18.398438 16 18.398438 L 14.398438 18.398438 L 14.398438 17.601562 L 16 17.601562 C 16.238281 17.601562 16.398438 17.441406 16.398438 17.199219 L 16.398438 14.800781 C 16.398438 14.558594 16.238281 14.398438 16 14.398438 L 14.398438 14.398438 L 14.398438 13.601562 L 16 13.601562 C 16.238281 13.601562 16.398438 13.441406 16.398438 13.199219 L 16.398438 10.800781 C 16.398438 10.558594 16.238281 10.398438 16 10.398438 L 14.398438 10.398438 L 14.398438 9.601562 L 16 9.601562 C 16.238281 9.601562 16.398438 9.441406 16.398438 9.199219 L 16.398438 6.800781 C 16.398438 6.558594 16.238281 6.398438 16 6.398438 L 14.398438 6.398438 L 14.398438 5.601562 L 23.199219 5.601562 L 23.199219 6.398438 L 21.601562 6.398438 C 21.359375 6.398438 21.199219 6.558594 21.199219 6.800781 L 21.199219 9.199219 C 21.199219 9.441406 21.359375 9.601562 21.601562 9.601562 L 23.199219 9.601562 L 23.199219 10.398438 L 21.601562 10.398438 C 21.359375 10.398438 21.199219 10.558594 21.199219 10.800781 L 21.199219 13.199219 C 21.199219 13.441406 21.359375 13.601562 21.601562 13.601562 L 23.199219 13.601562 L 23.199219 14.398438 L 21.601562 14.398438 C 21.359375 14.398438 21.199219 14.558594 21.199219 14.800781 L 21.199219 17.199219 C 21.199219 17.441406 21.359375 17.601562 21.601562 17.601562 L 23.199219 17.601562 L 23.199219 18.398438 L 21.601562 18.398438 C 21.359375 18.398438 21.199219 18.558594 21.199219 18.800781 L 21.199219 21.199219 C 21.199219 21.441406 21.359375 21.601562 21.601562 21.601562 L 23.199219 21.601562 L 23.199219 23.199219 Z M 23.199219 20.800781 L 22 20.800781 L 22 19.199219 L 23.199219 19.199219 Z M 23.199219 20.800781"/>
    <path d="M20 6.398438L17.601562 6.398438C17.359375 6.398438 17.199219 6.558594 17.199219 6.800781L17.199219 9.199219C17.199219 9.441406 17.359375 9.601562 17.601562 9.601562L20 9.601562C20.238281 9.601562 20.398438 9.441406 20.398438 9.199219L20.398438 6.800781C20.398438 6.558594 20.238281 6.398438 20 6.398438zM19.601562 8.800781L18 8.800781 18 7.199219 19.601562 7.199219zM20 10.398438L17.601562 10.398438C17.359375 10.398438 17.199219 10.558594 17.199219 10.800781L17.199219 13.199219C17.199219 13.441406 17.359375 13.601562 17.601562 13.601562L20 13.601562C20.238281 13.601562 20.398438 13.441406 20.398438 13.199219L20.398438 10.800781C20.398438 10.558594 20.238281 10.398438 20 10.398438zM19.601562 12.800781L18 12.800781 18 11.199219 19.601562 11.199219zM20 14.398438L17.601562 14.398438C17.359375 14.398438 17.199219 14.558594 17.199219 14.800781L17.199219 17.199219C17.199219 17.441406 17.359375 17.601562 17.601562 17.601562L20 17.601562C20.238281 17.601562 20.398438 17.441406 20.398438 17.199219L20.398438 14.800781C20.398438 14.558594 20.238281 14.398438 20 14.398438zM19.601562 16.800781L18 16.800781 18 15.199219 19.601562 15.199219zM20 18.398438L17.601562 18.398438C17.359375 18.398438 17.199219 18.558594 17.199219 18.800781L17.199219 21.199219C17.199219 21.441406 17.359375 21.601562 17.601562 21.601562L20 21.601562C20.238281 21.601562 20.398438 21.441406 20.398438 21.199219L20.398438 18.800781C20.398438 18.558594 20.238281 18.398438 20 18.398438zM19.601562 20.800781L18 20.800781 18 19.199219 19.601562 19.199219zM19.601562 20.800781"/>
</svg>

<svg xmlns="http://www.w3.org/2000/svg" width="32" height="32" viewBox="0 0 24 24">
    <path d="M6.398 3.2H4c-.238 0-.398.16-.398.402V6c0 .238.16.398.398.398h2.398c.243 0 .403-.16.403-.398V3.602c0-.243-.16-.403-.403-.403zM6 5.601H4.398V4H6zm0 0M10.398 3.2H8c-.238 0-.398.16-.398.402V6c0 .238.16.398.398.398h2.398c.243 0 .403-.16.403-.398V3.602c0-.243-.16-.403-.403-.403zM10 5.601H8.398V4H10zm0 0M6.398 7.2H4c-.238 0-.398.16-.398.402V10c0 .238.16.398.398.398h2.398c.243 0 .403-.16.403-.398V7.602c0-.243-.16-.403-.403-.403zM6 9.601H4.398V8H6zm0 0M10.398 7.2H8c-.238 0-.398.16-.398.402V10c0 .238.16.398.398.398h2.398c.243 0 .403-.16.403-.398V7.602c0-.243-.16-.403-.403-.403zM10 9.601H8.398V8H10zm0 0M6.398 11.2H4c-.238 0-.398.16-.398.402V14c0 .238.16.398.398.398h2.398c.243 0 .403-.16.403-.398v-2.398c0-.243-.16-.403-.403-.403zM6 13.601H4.398V12H6zm0 0M10.398 11.2H8c-.238 0-.398.16-.398.402V14c0 .238.16.398.398.398h2.398c.243 0 .403-.16.403-.398v-2.398c0-.243-.16-.403-.403-.403zM10 13.601H8.398V12H10zm0 0M6.398 15.2H4c-.238 0-.398.16-.398.402V18c0 .238.16.398.398.398h2.398c.243 0 .403-.16.403-.398v-2.398c0-.243-.16-.403-.403-.403zM6 17.601H4.398V16H6zm0 0M10.398 15.2H8c-.238 0-.398.16-.398.402V18c0 .238.16.398.398.398h2.398c.243 0 .403-.16.403-.398v-2.398c0-.243-.16-.403-.403-.403zM10 17.601H8.398V16H10zm0 0M6.398 19.2H4c-.238 0-.398.16-.398.402V22c0 .238.16.398.398.398h2.398c.243 0 .403-.16.403-.398v-2.398c0-.243-.16-.403-.403-.403zM6 21.601H4.398V20H6zm0 0M10.398 19.2H8c-.238 0-.398.16-.398.402V22c0 .238.16.398.398.398h2.398c.243 0 .403-.16.403-.398v-2.398c0-.243-.16-.403-.403-.403zM10 21.601H8.398V20H10zm0 0"/>
    <path d="M23.602 4.8H22V3.603c0-.243-.16-.403-.398-.403H16c-.238 0-.398.16-.398.403V4.8h-1.204V2c0-.238-.16-.398-.398-.398h-3.602V.398C10.398.16 10.238 0 10 0H4.398C4.16 0 4 .16 4 .398v1.204H.398C.16 1.602 0 1.762 0 2v21.602c0 .238.16.398.398.398h23.204c.238 0 .398-.16.398-.398V5.199c0-.238-.16-.398-.398-.398zm-.403 12H22v-1.6h1.2zm0-4H22v-1.6h1.2zm0-4H22V7.2h1.2zM16.4 4h4.8v.8h-4.8zm-2.797 1.2v.402h-1.204V4h1.204zm0 4v.402h-1.204V8h1.204zm0 4v.402h-1.204V12h1.204zm0 4v.402h-1.204V16h1.204zm0 4v.402h-1.204V20h1.204zm.796-1.598v-.403h1.204v1.602h-1.204zm0-4v-.403h1.204v1.602h-1.204zm0-4v-.403h1.204v1.602h-1.204zm0-4v-.403h1.204v1.602h-1.204zM4.801.8h4.8v.8h-4.8zM.8 4H2v1.602H.8zm0 4H2v1.602H.8zm0 4H2v1.602H.8zm0 4H2v1.602H.8zm0 4H2v1.602H.8zm0 2.398h1.597c.243 0 .403-.16.403-.398v-2.398c0-.243-.16-.403-.403-.403H.801v-.8h1.597c.243 0 .403-.16.403-.399v-2.398c0-.243-.16-.403-.403-.403H.801v-.8h1.597c.243 0 .403-.16.403-.399v-2.398c0-.243-.16-.403-.403-.403H.801v-.8h1.597c.243 0 .403-.16.403-.399V7.602c0-.243-.16-.403-.403-.403H.801v-.8h1.597c.243 0 .403-.16.403-.399V3.602c0-.243-.16-.403-.403-.403H.801v-.8h12.8v.8H12c-.238 0-.398.16-.398.403V6c0 .238.16.398.398.398h1.602V7.2H12c-.238 0-.398.16-.398.403V10c0 .238.16.398.398.398h1.602v.801H12c-.238 0-.398.16-.398.403V14c0 .238.16.398.398.398h1.602v.801H12c-.238 0-.398.16-.398.403V18c0 .238.16.398.398.398h1.602v.801H12c-.238 0-.398.16-.398.403V22c0 .238.16.398.398.398h1.602v.801H.8zm13.597.801v-1.597H16c.238 0 .398-.16.398-.403v-2.398c0-.242-.16-.403-.398-.403h-1.602v-.796H16c.238 0 .398-.16.398-.403v-2.398c0-.242-.16-.403-.398-.403h-1.602v-.796H16c.238 0 .398-.16.398-.403v-2.398c0-.242-.16-.403-.398-.403h-1.602v-.796H16c.238 0 .398-.16.398-.403V6.801c0-.242-.16-.403-.398-.403h-1.602v-.796H23.2v.796h-1.597c-.243 0-.403.16-.403.403v2.398c0 .242.16.403.403.403h1.597v.796h-1.597c-.243 0-.403.16-.403.403v2.398c0 .242.16.403.403.403h1.597v.796h-1.597c-.243 0-.403.16-.403.403v2.398c0 .242.16.403.403.403h1.597v.796h-1.597c-.243 0-.403.16-.403.403v2.398c0 .242.16.403.403.403h1.597v1.597zm8.801-2.398H22v-1.602h1.2zm0 0"/>
    <path d="M20 6.398h-2.398c-.243 0-.403.16-.403.403v2.398c0 .242.16.403.403.403H20c.238 0 .398-.16.398-.403V6.801c0-.242-.16-.403-.398-.403zm-.398 2.403H18V7.199h1.602zm0 0M20 10.398h-2.398c-.243 0-.403.16-.403.403v2.398c0 .242.16.403.403.403H20c.238 0 .398-.16.398-.403v-2.398c0-.242-.16-.403-.398-.403zm-.398 2.403H18v-1.602h1.602zm0 0M20 14.398h-2.398c-.243 0-.403.16-.403.403v2.398c0 .242.16.403.403.403H20c.238 0 .398-.16.398-.403v-2.398c0-.242-.16-.403-.398-.403zm-.398 2.403H18v-1.602h1.602zm0 0M20 18.398h-2.398c-.243 0-.403.16-.403.403v2.398c0 .242.16.403.403.403H20c.238 0 .398-.16.398-.403v-2.398c0-.242-.16-.403-.398-.403zm-.398 2.403H18v-1.602h1.602zm0 0"/>
</svg>
